symbols/web/fiber_new/materialsymbolsrounded/fiber_new_wght700_48px.svg

<svg xmlns="http://www.w3.org/2000/svg" height="48" width="48"><path d="M8.35 30.15q.45 0 .775-.35t.325-.8v-7.35l5 7.7q.25.35.675.575.425.225.875.225.6 0 1-.4t.4-.95v-9.85q0-.45-.325-.775t-.775-.325q-.5 0-.825.325-.325.325-.325.775v7.4l-4.95-7.7q-.25-.35-.725-.575Q9 17.85 8.55 17.85q-.55 0-.95.4-.4.4-.4.95v9.85q0 .45.325.775t.825.325Zm11.9 0h5.25q.5 0 .85-.375t.35-.875q0-.45-.35-.775t-.85-.325h-3.95v-2.6h4.05q.45 0 .775-.35t.325-.8q0-.45-.325-.775t-.775-.325h-4.05v-2.7h3.9q.55 0 .9-.3t.35-.85q0-.55-.35-.9t-.9-.35h-5.2q-.5 0-.85.35t-.35.85v9.9q0 .5.35.85t.85.35Zm10.45 0h8.5q.7 0 1.2-.475t.5-1.175v-9.4q0-.5-.375-.875t-.875-.375q-.55 0-.925.375t-.375.875v8.55h-2.4V21q0-.45-.325-.775t-.775-.325q-.45 0-.8.325-.35.325-.35.775v6.65h-2.15V19.1q0-.5-.375-.875t-.875-.375q-.5 0-.875.375t-.375.875v9.4q0 .7.475 1.175.475.475 1.175.475ZM5.55 41.25q-1.95 0-3.325-1.375Q.85 38.5.85 36.55v-25.1q0-1.95 1.375-3.35Q3.6 6.7 5.55 6.7h36.9q1.95 0 3.325 1.4 1.375 1.4 1.375 3.35v25.1q0 1.95-1.375 3.325Q44.4 41.25 42.45 41.25Zm0-4.7v-25.1 25.1Zm0 0h36.9v-25.1H5.55v25.1Z"/></svg>

<svg xmlns="http://www.w3.org/2000/svg" height="48" width="48"><path d="M8.35 30.15Q8.8 30.15 9.125 29.8Q9.45 29.45 9.45 29V21.65L14.45 29.35Q14.7 29.7 15.125 29.925Q15.55 30.15 16 30.15Q16.6 30.15 17 29.75Q17.4 29.35 17.4 28.8V18.95Q17.4 18.5 17.075 18.175Q16.75 17.85 16.3 17.85Q15.8 17.85 15.475 18.175Q15.15 18.5 15.15 18.95V26.35L10.2 18.65Q9.95 18.3 9.475 18.075Q9 17.85 8.55 17.85Q8 17.85 7.6 18.25Q7.2 18.65 7.2 19.2V29.05Q7.2 29.5 7.525 29.825Q7.85 30.15 8.35 30.15ZM20.25 30.15H25.5Q26 30.15 26.35 29.775Q26.7 29.4 26.7 28.9Q26.7 28.45 26.35 28.125Q26 27.8 25.5 27.8H21.55V25.2H25.6Q26.05 25.2 26.375 24.85Q26.7 24.5 26.7 24.05Q26.7 23.6 26.375 23.275Q26.05 22.95 25.6 22.95H21.55V20.25H25.45Q26 20.25 26.35 19.95Q26.7 19.65 26.7 19.1Q26.7 18.55 26.35 18.2Q26 17.85 25.45 17.85H20.25Q19.75 17.85 19.4 18.2Q19.05 18.55 19.05 19.05V28.95Q19.05 29.45 19.4 29.8Q19.75 30.15 20.25 30.15ZM30.7 30.15H39.2Q39.9 30.15 40.4 29.675Q40.9 29.2 40.9 28.5V19.1Q40.9 18.6 40.525 18.225Q40.15 17.85 39.65 17.85Q39.1 17.85 38.725 18.225Q38.35 18.6 38.35 19.1V27.65H35.95V21Q35.95 20.55 35.625 20.225Q35.3 19.9 34.85 19.9Q34.4 19.9 34.05 20.225Q33.7 20.55 33.7 21V27.65H31.55V19.1Q31.55 18.6 31.175 18.225Q30.8 17.85 30.3 17.85Q29.8 17.85 29.425 18.225Q29.05 18.6 29.05 19.1V28.5Q29.05 29.2 29.525 29.675Q30 30.15 30.7 30.15ZM5.55 41.25Q3.6 41.25 2.225 39.875Q0.85 38.5 0.85 36.55V11.45Q0.85 9.5 2.225 8.1Q3.6 6.7 5.55 6.7H42.45Q44.4 6.7 45.775 8.1Q47.15 9.5 47.15 11.45V36.55Q47.15 38.5 45.775 39.875Q44.4 41.25 42.45 41.25ZM5.55 36.55Q5.55 36.55 5.55 36.55Q5.55 36.55 5.55 36.55V11.45Q5.55 11.45 5.55 11.45Q5.55 11.45 5.55 11.45Q5.55 11.45 5.55 11.45Q5.55 11.45 5.55 11.45V36.55Q5.55 36.55 5.55 36.55Q5.55 36.55 5.55 36.55ZM5.55 36.55H42.45Q42.45 36.55 42.45 36.55Q42.45 36.55 42.45 36.55V11.45Q42.45 11.45 42.45 11.45Q42.45 11.45 42.45 11.45H5.55Q5.55 11.45 5.55 11.45Q5.55 11.45 5.55 11.45V36.55Q5.55 36.55 5.55 36.55Q5.55 36.55 5.55 36.55Z"/></svg>
